symbols/web/ring_volume/materialsymbolsrounded/ring_volume_wght700gradN25_20px.svg

<svg xmlns="http://www.w3.org/2000/svg" height="20" width="20"><path d="m2.979 17.396-1.875-1.813q-.416-.437-.427-1.145-.01-.709.427-1.126 1.917-1.708 4.052-2.677 2.136-.968 4.906-.968 2.771 0 4.917.906t4 2.739q.417.417.417 1.126 0 .708-.417 1.145l-1.833 1.813q-.313.292-.886.312-.572.021-.989-.291l-2.104-1.563q-.229-.187-.365-.469-.135-.281-.135-.552v-2.521q-.688-.25-1.313-.312t-1.292-.062q-.687 0-1.312.062t-1.312.312v2.521q0 .271-.146.552-.146.282-.375.469l-2.105 1.563q-.374.271-.958.271-.583 0-.875-.292Zm1-2.188 1.188-.896v-1.104q-.521.271-1 .604-.479.334-.917.667Zm12.167 0 .729-.75q-.417-.333-.906-.666-.49-.334-1.011-.563v1.083Zm-6.104-8.916q-.438 0-.792-.344-.354-.344-.354-.781V2.708q0-.437.354-.781.354-.344.792-.344.458 0 .802.344.344.344.344.781v2.459q0 .437-.344.781-.344.344-.802.344Zm3.812 1.625q-.375-.313-.364-.792.01-.479.343-.833l1.75-1.73q.313-.333.771-.354.458-.02.813.313.395.354.375.833-.021.479-.375.813l-1.771 1.75q-.313.312-.75.323-.438.01-.792-.323Zm-9.229-.021L2.896 6.167q-.334-.334-.354-.802-.021-.469.354-.823.354-.334.823-.323.469.01.823.364L6.25 6.312q.354.334.365.823.01.49-.386.803-.333.333-.812.302-.479-.032-.792-.344Zm10.333 5.333Zm-9.791-.021Z"/></svg>

<svg xmlns="http://www.w3.org/2000/svg" height="20" width="20"><path d="M2.979 17.396 1.104 15.583Q0.688 15.146 0.677 14.438Q0.667 13.729 1.104 13.312Q3.021 11.604 5.156 10.635Q7.292 9.667 10.062 9.667Q12.833 9.667 14.979 10.573Q17.125 11.479 18.979 13.312Q19.396 13.729 19.396 14.438Q19.396 15.146 18.979 15.583L17.146 17.396Q16.833 17.688 16.26 17.708Q15.688 17.729 15.271 17.417L13.167 15.854Q12.938 15.667 12.802 15.385Q12.667 15.104 12.667 14.833V12.312Q11.979 12.062 11.354 12Q10.729 11.938 10.062 11.938Q9.375 11.938 8.75 12Q8.125 12.062 7.438 12.312V14.833Q7.438 15.104 7.292 15.385Q7.146 15.667 6.917 15.854L4.812 17.417Q4.438 17.688 3.854 17.688Q3.271 17.688 2.979 17.396ZM3.979 15.208 5.167 14.312V13.208Q4.646 13.479 4.167 13.812Q3.688 14.146 3.25 14.479ZM16.146 15.208 16.875 14.458Q16.458 14.125 15.969 13.792Q15.479 13.458 14.958 13.229V14.312ZM10.042 6.292Q9.604 6.292 9.25 5.948Q8.896 5.604 8.896 5.167V2.708Q8.896 2.271 9.25 1.927Q9.604 1.583 10.042 1.583Q10.5 1.583 10.844 1.927Q11.188 2.271 11.188 2.708V5.167Q11.188 5.604 10.844 5.948Q10.5 6.292 10.042 6.292ZM13.854 7.917Q13.479 7.604 13.49 7.125Q13.5 6.646 13.833 6.292L15.583 4.562Q15.896 4.229 16.354 4.208Q16.812 4.188 17.167 4.521Q17.562 4.875 17.542 5.354Q17.521 5.833 17.167 6.167L15.396 7.917Q15.083 8.229 14.646 8.24Q14.208 8.25 13.854 7.917ZM4.625 7.896 2.896 6.167Q2.562 5.833 2.542 5.365Q2.521 4.896 2.896 4.542Q3.25 4.208 3.719 4.219Q4.188 4.229 4.542 4.583L6.25 6.312Q6.604 6.646 6.615 7.135Q6.625 7.625 6.229 7.938Q5.896 8.271 5.417 8.24Q4.938 8.208 4.625 7.896ZM14.958 13.229Q14.958 13.229 14.958 13.229Q14.958 13.229 14.958 13.229ZM5.167 13.208Q5.167 13.208 5.167 13.208Q5.167 13.208 5.167 13.208Z"/></svg>
